X: 402
%
U:~=!turn!
T: Miss Gayton's Hornpipe
C:
O:Scotland
B:Keith Norman MacDonald : "The Skye collection of the best reels & strathspeys extant" : 1887
Z:Ralph Palmer
R:Hornpipe
M:C
L:1/8
K:G
dc | Bdgf g2 dc | Bdgf g2 d^c | dfag fed^c | dfag fed=c | Bdgf g2 dc | Bdgf g2 dd | efge fgaf | g2 b2 g2 ||
ga | b2 bg a2 af | gfge d2 dB | c2 ec B2 dB | AGAB A2 ga | b2 bg a2 af | gfge d2 d2 | efge fgaf | g2 b2 g2 |]


